packages/icons/svg/Fill/trending-up.svg

<svg width="24" height="24" viewBox="0 0 24 24" fill="none" xmlns="http://www.w3.org/2000/svg">
<g id="Icon/Fill/trending-up">
<path id="Mask" fill-rule="evenodd" clip-rule="evenodd" d="M20.9923 6.96288C20.9902 6.89088 20.9692 6.82288 20.9503 6.75388C20.9353 6.69588 20.9283 6.63688 20.9033 6.58388C20.8803 6.53188 20.8413 6.48988 20.8073 6.44188C20.7653 6.38088 20.7273 6.31988 20.6733 6.26988C20.6643 6.26088 20.6603 6.24888 20.6503 6.24088C20.6143 6.20988 20.5703 6.19888 20.5313 6.17388C20.4713 6.13488 20.4123 6.09488 20.3443 6.06888C20.2773 6.04488 20.2113 6.03888 20.1423 6.02888C20.0943 6.02188 20.0513 5.99988 20.0003 5.99988H15.0003C14.4473 5.99988 14.0003 6.44788 14.0003 6.99988C14.0003 7.55188 14.4473 7.99988 15.0003 7.99988H17.8263L13.7903 12.7079L9.51425 10.1429C9.09125 9.88688 8.54725 9.98088 8.23125 10.3599L3.23125 16.3599C2.87825 16.7839 2.93525 17.4149 3.35925 17.7679C3.54725 17.9239 3.77325 17.9999 3.99925 17.9999C4.28625 17.9999 4.57025 17.8779 4.76825 17.6399L9.22025 12.2979L13.4853 14.8579C13.9043 15.1089 14.4423 15.0209 14.7593 14.6509L19.0003 9.70288V11.9999C19.0003 12.5519 19.4473 12.9999 20.0003 12.9999C20.5533 12.9999 21.0003 12.5519 21.0003 11.9999V6.99988C21.0003 6.98688 20.9932 6.97588 20.9923 6.96288Z" fill="#000000"/>
</g>
</svg>

<svg fill="none" height="24" viewBox="0 0 24 24" width="24" xmlns="http://www.w3.org/2000/svg"><path clip-rule="evenodd" d="m20.9922 6.963c-.002-.072-.023-.14-.042-.209-.015-.058-.022-.117-.047-.17-.023-.052-.062-.094-.096-.142-.042-.061-.08-.122-.134-.172-.009-.009-.013-.021-.023-.029-.036-.031-.08-.042-.119-.067-.06-.039-.119-.079-.187-.105-.067-.024-.133-.03-.202-.04-.048-.007-.091-.029-.142-.029h-5c-.553 0-1 .448-1 1s.447 1 1 1h2.826l-4.036 4.708-4.27601-2.565c-.423-.256-.967-.162-1.283.217l-5 6c-.353.424-.296 1.055.128 1.408.188.156.414.232.64.232.287 0 .571-.122.769-.36l4.452-5.342 4.26501 2.56c.419.251.957.163 1.274-.207l4.241-4.948v2.297c0 .552.447 1 1 1s1-.448 1-1v-5c0-.013-.007-.024-.008-.037" fill="#6b7280" fill-rule="evenodd"/></svg>
